_assets/logos/irem.svg

<?xml version="1.0" encoding="utf-8"?>
<!DOCTYPE svg PUBLIC "-//W3C//DTD SVG 20010904//EN" "http://www.w3.org/TR/2001/REC-SVG-20010904/DTD/svg10.dtd">
<svg version="1.0" xmlns="http://www.w3.org/2000/svg" width="499px" height="192px" viewBox="0 0 499 192" preserveAspectRatio="xMidYMid meet">
 <g fill="#181816">
  <path d="M1 96 l0 -95 34.3 0 34.2 0 -0.3 30.5 -0.3 30.5 214.8 0 214.8 0 -0.3 64.5 -0.2 64.5 -157 0 -157 0 0 -30.5 0 -30.5 -27 0 -27 0 0 30.5 0 30.5 -64.5 0 -64.5 0 0 -95z"/>
 </g>
 <g fill="#27a7dc">
  <path d="M8 34.5 l0 -26.5 27.5 0 27.5 0 0 26.5 0 26.5 -27.5 0 -27.5 0 0 -26.5z"/>
 </g>
 <g fill="#7ad563">
  <path d="M8 127 l0 -58 27.5 0 27.5 0 -0.2 57.8 -0.3 57.7 -27.2 0.3 -27.3 0.3 0 -58.1z"/>
 </g>
 <g fill="#96f263">
  <path d="M8.1 183.3 c0 -1 0.3 -1.3 0.6 -0.5 0.3 0.9 6.1 1.2 23.8 1.2 20.3 0 23.4 -0.2 23.9 -1.6 0.3 -0.9 0.6 -26.1 0.6 -56 l0 -54.5 -24.5 0.3 c-22.8 0.3 -24.5 0.2 -24.5 -1.4 0 -1.7 2 -1.8 27.5 -1.8 l27.5 0 -0.2 57.8 -0.3 57.7 -27.2 0.3 c-25.8 0.3 -27.3 0.2 -27.2 -1.5z"/>
 </g>
 <g fill="#63c8f5">
  <path d="M56.8 36.3 l-0.3 -24.8 -24.3 0 c-22.4 0 -24.2 -0.1 -24.2 -1.7 0 -1.7 2 -1.8 27.5 -1.8 l27.5 0 0 26.5 0 26.5 -3 0 -3 0 -0.2 -24.7z"/>
 </g>
 <g fill="#ffffff">
  <path d="M70 127 l0 -58 57 0 57 0 0 27 0 27 -30.5 0 -30.5 0 0 31 0 31 -26.5 0 -26.5 0 0 -58z"/>
  <path d="M192.3 184.3 c-1 -0.4 -1.3 -12.9 -1.3 -57.9 l0 -57.4 58 0 58 0 -0.2 37.8 -0.3 37.7 -36.8 0.3 -36.8 0.2 0.3 3.6 0.3 3.5 36.5 0.2 36.5 0.2 0 16 0 16 -56.5 0.2 c-31.1 0.1 -57.1 -0.1 -57.7 -0.4z m73.7 -76.3 l0 -4 -16.2 0.2 c-16.2 0.3 -16.3 0.3 -16.6 2.6 -0.7 5.1 -0.4 5.2 16.8 5.2 l16 0 0 -4z"/>
  <path d="M314 127 l0 -58 89 0 89 0 -0.2 57.8 -0.3 57.7 -24.5 0.3 c-13.5 0.1 -25.5 0 -26.7 -0.3 l-2.3 -0.5 0 -28.5 0 -28.5 -3.5 0 -3.5 0 0 29 0 29 -26.5 0 -26.5 0 0 -29 0 -29 -3.7 0 -3.8 0 0 28.7 0 28.8 -28.2 0.3 -28.3 0.2 0 -58z"/>
 </g>
</svg>

<?xml version="1.0" encoding="UTF-8" standalone="no"?>
<svg
   xmlns:dc="http://purl.org/dc/elements/1.1/"
   xmlns:cc="http://creativecommons.org/ns#"
   xmlns:rdf="http://www.w3.org/1999/02/22-rdf-syntax-ns#"
   xmlns:svg="http://www.w3.org/2000/svg"
   xmlns="http://www.w3.org/2000/svg"
   xmlns:sodipodi="http://sodipodi.sourceforge.net/DTD/sodipodi-0.dtd"
   xmlns:inkscape="http://www.inkscape.org/namespaces/inkscape"
   version="1.0"
   width="497.5"
   height="240"
   viewBox="0 0 497.5 240"
   preserveAspectRatio="xMidYMid meet"
   id="svg30"
   sodipodi:docname="irem.svg"
   inkscape:version="0.92.5 (2060ec1f9f, 2020-04-08)">
  <metadata
     id="metadata36">
    <rdf:RDF>
      <cc:Work
         rdf:about="">
        <dc:format>image/svg+xml</dc:format>
        <dc:type
           rdf:resource="http://purl.org/dc/dcmitype/StillImage" />
        <dc:title></dc:title>
      </cc:Work>
    </rdf:RDF>
  </metadata>
  <defs
     id="defs34" />
  <sodipodi:namedview
     pagecolor="#ffffff"
     bordercolor="#666666"
     borderopacity="1"
     objecttolerance="10"
     gridtolerance="10"
     guidetolerance="10"
     inkscape:pageopacity="0"
     inkscape:pageshadow="2"
     inkscape:window-width="1608"
     inkscape:window-height="629"
     id="namedview32"
     showgrid="false"
     fit-margin-top="0"
     fit-margin-left="0"
     fit-margin-right="0"
     fit-margin-bottom="50"
     inkscape:zoom="1.2753429"
     inkscape:cx="274.45099"
     inkscape:cy="127.21422"
     inkscape:window-x="72"
     inkscape:window-y="27"
     inkscape:window-maximized="0"
     inkscape:current-layer="svg30" />
  <g
     id="g4"
     style="fill:#181816"
     transform="translate(-1,-1)">
    <path
       d="M 1,96 V 1 H 35.3 69.5 L 69.2,31.5 68.9,62 H 283.7 498.5 L 498.2,126.5 498,191 H 341 184 V 160.5 130 H 157 130 V 160.5 191 H 65.5 1 Z"
       id="path2"
       inkscape:connector-curvature="0" />
  </g>
  <g
     id="g8"
     style="fill:#27a7dc"
     transform="translate(-1,-1)">
    <path
       d="M 8,34.5 V 8 H 35.5 63 V 34.5 61 H 35.5 8 Z"
       id="path6"
       inkscape:connector-curvature="0" />
  </g>
  <g
     id="g12"
     style="fill:#7ad563"
     transform="translate(-1,-1)">
    <path
       d="M 8,127 V 69 H 35.5 63 l -0.2,57.8 -0.3,57.7 -27.2,0.3 -27.3,0.3 z"
       id="path10"
       inkscape:connector-curvature="0" />
  </g>
  <g
     id="g16"
     style="fill:#96f263"
     transform="translate(-1,-1)">
    <path
       d="m 8.1,183.3 c 0,-1 0.3,-1.3 0.6,-0.5 0.3,0.9 6.1,1.2 23.8,1.2 20.3,0 23.4,-0.2 23.9,-1.6 0.3,-0.9 0.6,-26.1 0.6,-56 V 71.9 L 32.5,72.2 C 9.7,72.5 8,72.4 8,70.8 8,69.1 10,69 35.5,69 H 63 l -0.2,57.8 -0.3,57.7 -27.2,0.3 C 9.5,185.1 8,185 8.1,183.3 Z"
       id="path14"
       inkscape:connector-curvature="0" />
  </g>
  <g
     id="g20"
     style="fill:#63c8f5"
     transform="translate(-1,-1)">
    <path
       d="M 56.8,36.3 56.5,11.5 H 32.2 C 9.8,11.5 8,11.4 8,9.8 8,8.1 10,8 35.5,8 H 63 V 34.5 61 h -3 -3 z"
       id="path18"
       inkscape:connector-curvature="0" />
  </g>
  <g
     id="g28"
     style="fill:#ffffff"
     transform="translate(-1,-1)">
    <path
       d="M 70,127 V 69 h 57 57 v 27 27 H 153.5 123 v 31 31 H 96.5 70 Z"
       id="path22"
       inkscape:connector-curvature="0" />
    <path
       d="m 192.3,184.3 c -1,-0.4 -1.3,-12.9 -1.3,-57.9 V 69 h 58 58 l -0.2,37.8 -0.3,37.7 -36.8,0.3 -36.8,0.2 0.3,3.6 0.3,3.5 36.5,0.2 36.5,0.2 v 16 16 l -56.5,0.2 c -31.1,0.1 -57.1,-0.1 -57.7,-0.4 z M 266,108 v -4 l -16.2,0.2 c -16.2,0.3 -16.3,0.3 -16.6,2.6 -0.7,5.1 -0.4,5.2 16.8,5.2 h 16 z"
       id="path24"
       inkscape:connector-curvature="0" />
    <path
       d="M 314,127 V 69 h 89 89 l -0.2,57.8 -0.3,57.7 -24.5,0.3 c -13.5,0.1 -25.5,0 -26.7,-0.3 L 438,184 V 155.5 127 h -3.5 -3.5 v 29 29 H 404.5 378 v -29 -29 h -3.7 -3.8 v 28.7 28.8 l -28.2,0.3 -28.3,0.2 z"
       id="path26"
       inkscape:connector-curvature="0" />
  </g>
</svg>
